X: 6816
T: Charlie Batchelor's Lost
R: jig
M: 6/8
K: Gmajor
DEF|:G2G GAG|B2d b2f|a2g g2B|d2c c3|
AGA AGA|A2c a2f|1 fed cAc|B3B2F:|2 fed cBA|G3G2B||
d2d ABc|B2AG3|1 d2d ABc|B3B3:|2 ded cBA|G3G3||

